images/battery-charging-40.svg

<?xml version="1.0" encoding="utf-8"?><!DOCTYPE svg PUBLIC "-//W3C//DTD SVG 1.1//EN" "http://www.w3.org/Graphics/SVG/1.1/DTD/svg11.dtd"><svg xmlns="http://www.w3.org/2000/svg" xmlns:xlink="http://www.w3.org/1999/xlink" version="1.1" width="24" height="24" viewBox="0 0 24 24"><path d="M23,11h-3V4l-5,10h3v8 M12,14H4V6h8 M12.67,4H11V2H5v2H3.33C2.596,4,2,4.595,2,5.33v15.34C2,21.4,2.6,22,3.33,22h9.34C13.4,22,14,21.4,14,20.67V5.33C14,4.595,13.404,4,12.67,4z"/></svg>

<?xml version="1.0" encoding="UTF-8"?><!DOCTYPE svg PUBLIC "-//W3C//DTD SVG 1.1//EN" "http://www.w3.org/Graphics/SVG/1.1/DTD/svg11.dtd"><svg xmlns="http://www.w3.org/2000/svg" xmlns:xlink="http://www.w3.org/1999/xlink" version="1.1" width="24" height="24" viewBox="0 0 24 24"><path d="M23,11H20V4L15,14H18V22M12,13H4V6H12M12.67,4H11V2H5V4H3.33A1.33,1.33 0 0,0 2,5.33V20.67C2,21.4 2.6,22 3.33,22H12.67C13.4,22 14,21.4 14,20.67V5.33A1.33,1.33 0 0,0 12.67,4Z" /></svg>
